X:1
T:Il est vray que notre oeil
T:Jacques Arcadelt
T:Source : XIIe Livre de Chansons nouvelles à 4 parties---Paris---P.Attaignant---1543. Editor : André Vierendeels (17/01/15).
T:Il est vray que vostre oeil
C:Jacques Arcadelt
%%score [ 1 [ 2 3 ] 4 ]
L:1/8
Q:1/4=120
M:2/2
K:F
V:1 treble nm="Altus" snm="A"
V:2 treble-8 nm="Tenor 1" snm="T 1"
V:3 treble-8 nm="Tenor 2" snm="T 2"
V:4 bass nm="Bassus" snm="B"
V:1
 z8 | F4 F2 F2 | F4 E4 | F4 C2 F2- | F2 E2 D2 C2 | D4 C4- | C4 z2 F2 | F6 F2 | G2 G2 A4- | %9
w: |Il est vray|que vo-|str'oeil qui pleu-|* re, le mien|ten- te,|_ mais|rai- son|ne per- met,|
 A4 z2 F2- | F2 B4 B2 | A2 B3 A A2- | A2 G2 A4 | z2 F2 F2 F2 | D4 F4 | E2 C2 F2 E2 | F2 G2 A2 G2- | %17
w: _ quen|_ pleu- rant|vous se- * quen-|* * te,|car cest bien|la rai-|son que ce- luy|seul la- men- *|
 G2 F2 G4 | E8 |: z2 G2 B2 B2 | A2 A2 GF ED | E2 F2 ED EF | G2 G2 F3 G | AF G3 F F2- | %24
w: |te,|qui pour me|fai- re vi- * * *|* vr'est cau- * * *|* se que ie|meu- * * * *|
[M:2/4] F2 ED |1[M:2/2] E8 :|2 F2 E2 F4- || F8 |] %28
w: |re,|(meu)- * re.|_|
V:2
 c4 c2 c2 | d4 d4- | d2 c2 c4 | d4 z2 F2 | c3 c A2 A2 | F2 B2 A2 G2 | A8 | z2 d2 d2 d2 | %8
w: Il est vray|que vo-|* * str'oeil|_ qui|pleu- re, le mien|ten- * * *|te,|mais rai- son|
 e2 e2 f2 c2- | c2 f4 f2 | d2 g2 f4- | f8 | d4 d4- | d4 z2 f2 | f2 f2 d2 d2 | c4 F2 c2 | %16
w: me per- met quen|_ pleu- rant|vous se- quen-||* te,|_ car|cest bien la rai-|son que ce-|
 A2 c3 d e2- | ed c4 B2 | A2 G2 z2 c2 |: e2 e2 d2 d2 | c6 c2 | c2 A2 c2 c2 | d6 cB | A2 G2 c2 B2 | %24
w: luy seul la- men-||* te, qui|pour me fai- re|vi- vr'est-|cau- se que ie|meu- * *||
[M:2/4] c4- |1[M:2/2] c4 z2 c2 :|2 c4 c4- || c8 |] %28
w: re,|_ qui|(meu)- re.|_|
V:3
 z4 A4 | A2 A2 B4 | A4 G4 | B4 A4- | A2 G2 F2 E2 | DE F4 E2 | F4 A4 | B2 B2 A2 F2 | c8 | %9
w: Il|est vray que|vo- *|str'oeil qui|_ pleu- re, le|mien _ ten- *|te, mais|rai- son ne per-|met,|
 z2 F4 B2- | B2 B2 d2 d2 | c2 d3 c BA | B4 A4- | A8 | z2 B2 B2 B2 | G3 F/G/ A2 G2 | z2 G2 c2 B2 | %17
w: quen pleu-|* rant vous se-|quen- * * * *|* te,|_|car cest bien|la _ _ rai- son|que ce- luy|
 c2 c2 d4 | c4 G4 |: G4 G2 D2 | F2 CD EF G2- | G2 F2 G2 A2 | B2 B2 AG AB | c3 B A2 GF | %24
w: seul la- men-|te, qui|pour me fai-|re vi- * * * *|* vr'est cau- se|que ie meu- * * *||
[M:2/4] G2 A2 |1[M:2/2] G4 G4 :|2 G4 F4- || F8 |] %28
w: |re, qui|(meu)- re.|_|
V:4
 F,4 F,2 F,2 | D,2 D,2 B,,3 A,,/G,,/ | F,,G,, A,,B,, C,4 | z2 B,,2 F,4- | F,2 C,2 D,2 A,,2 | %5
w: Il est vray|que vo- * * *|* * * * str'oeil|qui pleu-|* re, le mien|
 B,,4 C,4 | z2 F,,2 F,,2 F,,2 | B,,4 D,4 | C,2 C,2 F,4- | F,2 F,2 D,2 D,2 | %10
w: ten- te,|mais rai- son|ne per-|met quen pleu-|* rant vous se-|
 B,,2 G,,A,, B,,C, D,E, | F,2 B,,2 F,4 | G,4 z2 D,2 | D,2 D,2 F,4 | B,,8 | C,4 z2 C,2 | %16
w: quen- * * * * * *||te, car|cest bien la|rai-|son que|
 F,2 E,2 F,2 G,2 | A,4 G,4 | C,2 C,4 C,2- |: C,2 C,2 G,,2 B,,2 | F,,G,, A,,B,, C,4- | %21
w: ce- luy seul la-|men- *|te, qui pour|_ me fai- re|vi- * * * *|
 C,2 D,2 C,3 B,,/A,,/ | G,,A,, B,,C, D,E, F,2- | F,2 E,2 F,2 D,2 |[M:2/4] C,4 |1 %25
w: * vr'est cau- * *||* se que ie|meu-|
[M:2/2] C,2 C,4 (C,2 :|2 C,4) F,,4- || F,,8 |] %28
w: re, qui pour|meu- re.|_|

